startshape s0

shape s0 {
    sX[y 10]
}

shape sX {
    k = 60
    loop 10 [s 0.9 y 0.1] {
        lf[r k]
        lf[r -k]
    }
}

shape c0 {
    CIRCLE[]
    c0[x 1 r 10 s 0.9]
}

shape lf {
    trans [y 1] {
        p1[]
        p1[s 0.9 b 1]
        
    }
}

path p1 {
    MOVETO(0, 1)
    ARCTO(0, -1, 2)
    ARCTO(0, 1, 2)
}