startshape s0
CF::MinimumSize = 2
CF::Impure = 1

shape s0 {
    s1[]
}

shape s1 {
    n = 20
    loop n [y 0.1 s 0.9] {
        p0(1, .08)[]
        loop 6 []
            p0(0.1, .05)[x (randint(0, 10) * 0.1) b 1]
        loop 10 [x 0.1] CIRCLE[s 0.02 b 1]
    }
}

shape c0 {
    CIRCLE[s 0.6]
    c0[s 0.935 x 1]
}


path p0(number len, number wdth) {
    MOVETO(0, 0)
    LINETO(0 + len, 0)
    STROKE(wdth, CF::RoundCap)[]
}