startshape s0
CF::MinimumSize = 2


shape s0 {
    s2[]
}

shape s2 { 
    s1[]
    trans [flip 90 x 1.08 y 0.4] s1[flip 0]
}

shape s1 {
    n = 10
    k = 180 / (n)
    loop i = n [y .05]{
        trans [s .9] {
            p0(i*.1, 0.04)[]
            p0(i*.05, 0.025)[b 1]
            loop 10 [x 0.1] CIRCLE[x .15 s 0.01 b 1]
        }
    }
}

path p0(number len, number wdth) {
    MOVETO(.15, 0)
    LINETO(.15+len, 0)
    STROKE(wdth, CF::IsoWidth + CF::RoundCap)[]
}