startshape s3

shape s1 {
    s2[]
    s2[[ flip 90 flip 0 ]]
}

shape s2 {
    loop 10 [x 0.1 r 10 s 0.8 h 11.94 sat -0.0071 b 0.0000] CIRCLE [ s 0.1 ] 
}

shape s3 {
    loop 15 [y 0.15 r 4 s 0.9] s1[]
}

shape s4 {
    loop 3 [x 0.7] s3[] 
}