import "library.cfdg"


startshape s0

shape s0 {
    loop i=30 [s 0.9 r 4] s1(1)[]
}

shape s1(number br) {
    n = 200
    k = 360 / n
    loop i=n [r k] 
        trans [s (1 + abs(sin(i*k*3)))] 
            CIRCLE[x 1 s 0.05 b 0]
}
